X:1
T:Shining Out of Darkness
T:Howard E. Smith
T:Shining Out of Darkness
T:Public Domain
T:Public Domain
T:Public Domain
T:Public Domain
C:Howard E. Smith
Z:Public Domain
%%score 1 2
L:1/8
M:4/4
K:C
V:1 treble 
V:2 bass 
V:1
"^Semi-Chorus" EEEG FFFB | A2 G2 G2 z E | G2 F2 F2 z D | F2 E2 E2 z2 | EEEG FFFB | A2 G2 G2 z G | %6
w: 1.~Shin- ing out of dark- ness, came the|Christ- mas time, With|light sub- lime, with|light sub- lime;|Glo- ry- light from Heav- en thrilled the|sleep- ing earth, The|
w: 2.~Shin- ing o’er the man- ger where the|Christ Child slept, A|star most bright its|vi- gil kept;|Seen a- far, all si- lent- ly it|showed the world The|
w: 3.~Shep- herds on the hill- side heard a|might- y voice, A|voice that bade the|world re- joice;|“Fear not!” rang the mess- age! ring it|out a- gain! The|
 AAAd c2 B2 | c6 z2 |"^Girls Only" eeec dddB | c2 A2 A2 z A | B2 E2 E2 z d | c2 A2 A2 z2 | %12
w: ho- ly night of Je- sus’|birth.|Mem- ories of that glo- ry seem to|ling- er still— To|ling- er still, o’er|vale and hill;|
w: ban- ner fair of love un-|furled.|Won- drous star of Beth- le’em town, so|large, so bright, O|guid- ing light! O|guid- ing light!|
w: an- gels brought good news to|men.|“Glo- ry in the high- est!” hosts of|an- gels sang, Till|all the courts of|Heav- en rang;|
 eeec dddB | c2 A2 e2 z c | BBBd [Ec]2 [DB]2 | ([CEA]4 [B,FG]4) || %16
w: Stars of Christ- mas ev- er seem more|bright, more clear, Than|an- y star through- out the|year. *|
w: Lead us all to seek the King of|kings to- night; Thou|guid- ing star so bright, so|bright! *|
w: “Glo- ry in the high- est!” how it|e- choes still That|cra- dle song of Beth- le’em’s|hill. *|
"^Refrain" [Ece][Ece][Ece][Geg] [Fdf][Fdf][Fdf][Bgb] | [Afa]2 [Geg]2 [Geg]2 z [Ece] | %18
w: ||
w: Glo- ry- light came stream- ing from the|court of Heav’n When|
w: ||
 [Geg]2 [Fdf]2 [Fdf]2 z [DBd] | [Fdf]2 [Ece]2 [Ece]2 z2 | %20
w: ||
w: Christ— God’s gift to|earth— was giv’n;|
w: ||
 [Ece][Ece][Ece][Geg] [Fdf][Fdf][Fdf][Bgb] | [Afa]2 [Geg]2 [Geg]2 z [Geg] | %22
w: ||
w: Shin- ing Christ- mas tap- ers, gleam in|ev- ery clime, In|
w: ||
 [Afa][Afa][Afa][dfd'] [cec']2 [Bdb]2 | [cec']6 z2 x2 |] %24
w: ||
w: mem- ory of that Light sub-|lime.|
w: ||
V:2
 C,2 [E,G,C]2 G,,2 [F,G,B,]2 | C,2 [E,G,C]2 (G,,2 [E,G,C]2) | D,2 [F,G,B,]2 (G,,2 [F,G,B,]2) | %3
 C,2 [E,G,C]2 (G,,2 [E,G,C]2) | C,2 [E,G,C]2 G,,2 [F,G,B,]2 | C,2 [E,G,C]2 (G,,2 [E,G,C]2) | %6
 F,,2 [F,A,D]2 G,,2 [F,G,B,]2 | ([E,G,C]2 [G,,G,]2 [C,,C,]2) z2 | %8
 [A,,A,]2 [E,A,C]2 [E,,E,]2 [E,^G,B,D]2 | [A,,A,]2 [E,A,C]2 ([E,A,C]2 [E,A,C]2) | %10
 [E,,E,]2 [E,^G,B,D]2 ([E,G,B,D]2 [E,G,B,D]2) | [A,,A,]2 [E,A,C]2 ([E,A,C]2 [E,A,C]2) | %12
 [A,,A,]2 [E,A,C]2 [E,,E,]2 [E,^G,B,D]2 | [A,,A,]2 [E,A,C]2 ([E,A,C]2 [E,A,C]2) | %14
 [E,,E,]2 [E,^G,D]2 [E,A,C]2 [E,G,]2 | ([A,,A,]2 [E,,E,]2 [D,,D,]2 [G,,,G,,]2) || %16
 C,2 [E,G,C]2 G,,2 [F,G,B,]2 | C,2 [E,G,C]2 (G,,2 [E,G,C]2) | D,2 [F,G,B,]2 (G,,2 [F,G,B,]2) | %19
 C,2 [E,G,C]2 (G,,2 [E,G,C]2) | C,2 [E,G,C]2 G,,2 [F,G,B,]2 | D,2 [E,G,C]2 G,,2 [E,G,C]2 | %22
 F,,2 [F,A,D]2 G,,2 [F,G,B,]2 | ([E,G,C]2 [G,,G,]2 [C,,C,]4) z2 |] %24

